X: 5207
T: British Grenadiers' March
R: polka
M: 2/4
K: Gmajor
GD GA|Bc/B/ AB/c/|dG B/A/G/F/|G3 D/E/F|
GD/G/ AG/A/|BB A2|d>G B/>A/G/F/|G3:|
d>e dc|B2 d2|e>e d/c/B/A/|GA/G/ F>D|
G2 AA|B/G/d/B/ AB/c/|dD B/A/G/F/|G2 G:|

